icons/chevron-square-downB.svg

<svg width="24" height="24" viewBox="0 0 24 24" fill="none" xmlns="http://www.w3.org/2000/svg">
<path d="M15 21H9C5.7 21 3 18.3 3 15V9C3 5.7 5.7 3 9 3H15C18.3 3 21 5.7 21 9V15C21 18.3 18.3 21 15 21Z" fill="black"/>
<path fill-rule="evenodd" clip-rule="evenodd" d="M9 3.75C6.11421 3.75 3.75 6.11421 3.75 9V15C3.75 17.8858 6.11421 20.25 9 20.25H15C17.8858 20.25 20.25 17.8858 20.25 15V9C20.25 6.11421 17.8858 3.75 15 3.75H9ZM2.25 9C2.25 5.28579 5.28579 2.25 9 2.25H15C18.7142 2.25 21.75 5.28579 21.75 9V15C21.75 18.7142 18.7142 21.75 15 21.75H9C5.28579 21.75 2.25 18.7142 2.25 15V9Z" fill="black"/>
<path fill-rule="evenodd" clip-rule="evenodd" d="M7.76966 9.76972C8.06255 9.47683 8.53742 9.47683 8.83032 9.76972L11.95 12.8894L15.0697 9.76972C15.3626 9.47683 15.8374 9.47683 16.1303 9.76972C16.4232 10.0626 16.4232 10.5375 16.1303 10.8304L12.9303 14.0304C12.6655 14.2952 12.3077 14.475 11.9125 14.475C11.5294 14.475 11.1695 14.3027 10.928 13.9887L7.76966 10.8304C7.47676 10.5375 7.47676 10.0626 7.76966 9.76972ZM11.8492 12.9869C11.8492 12.9868 11.8497 12.9865 11.8508 12.9859L11.8492 12.9869Z" fill="white"/>
</svg>

<svg xmlns="http://www.w3.org/2000/svg" fill="none" viewBox="0 0 24 24">
  <path fill="#000" d="M15 21H9c-3.3 0-6-2.7-6-6V9c0-3.3 2.7-6 6-6h6c3.3 0 6 2.7 6 6v6c0 3.3-2.7 6-6 6Z"/>
  <path fill="#000" fill-rule="evenodd" d="M9 3.75C6.114 3.75 3.75 6.114 3.75 9v6c0 2.886 2.364 5.25 5.25 5.25h6c2.886 0 5.25-2.364 5.25-5.25V9c0-2.886-2.364-5.25-5.25-5.25H9ZM2.25 9c0-3.714 3.036-6.75 6.75-6.75h6c3.714 0 6.75 3.036 6.75 6.75v6c0 3.714-3.036 6.75-6.75 6.75H9c-3.714 0-6.75-3.036-6.75-6.75V9Z" clip-rule="evenodd"/>
  <path fill="#fff" fill-rule="evenodd" d="M7.77 9.77a.75.75 0 0 1 1.06 0l3.12 3.12 3.12-3.12a.75.75 0 1 1 1.06 1.06l-3.2 3.2a1.45 1.45 0 0 1-1.018.445 1.23 1.23 0 0 1-.984-.486L7.77 10.83a.75.75 0 0 1 0-1.06Zm4.08 3.217v-.001Z" clip-rule="evenodd"/>
</svg>
